packages/core/icons/tp-wi-fi-off.svg

<svg viewBox="0 0 24 24">
  <title>wi-fi-off</title>
  <style>
    :host {
      --stroke: var(--tp-color-neutral-10);
      --stroke-width: 2;
    }

    :host {
      font-size: 24px;
      stroke: inherit;
    }

    :host path {
      stroke: var(--stroke);
      stroke-width: var(--stroke-width);
      fill: none;
      stroke-linecap: round;
      stroke-linejoin: round;
    }

    :host(.ion-color) path {
      --stroke: var(--ion-color-base) !important;
    }

    :host([tp-size='sm']) {
      /* --stroke-width: 1.5; */
      font-size: 16px;
    }

    :host([tp-size='md']) {
      /* --stroke-width: 3; */
      font-size: 32px;
    }

    :host([tp-size='lg']) {
      /* --stroke-width: 4; */
      font-size: 48px;
    }
  </style>
  <g clip-path="url(#clip0_5000_48879)">
    <path d="M1 1L23 23M16.7202 11.06C17.5393 11.4597 18.3053 11.9603 19.0002 12.55M5 12.55C6.48208 11.3108 8.26587 10.4862 10.17 10.16M10.71 5.05C12.8524 4.87737 15.0076 5.13816 17.047 5.81682C19.0865 6.49548 20.9682 7.57808 22.58 9M1.42 9C2.80717 7.77385 4.3977 6.79923 6.12 6.12M8.52979 16.11C9.54499 15.3887 10.7595 15.0013 12.0048 15.0013C13.2501 15.0013 14.4646 15.3887 15.4798 16.11M12 20H12.01"/>
  </g>
  <defs>
    <clipPath id="clip0_5000_48879">
      <rect />
    </clipPath>
  </defs>
</svg>

<svg viewBox="0 0 24 24">
  <title>wi-fi-off</title>
  <style>
    :host {
      --stroke: var(--tp-color-neutral-10);
      --stroke-width: 2;
    }

    :host {
      font-size: 24px;
      stroke: inherit;
    }

    :host path {
      stroke: var(--stroke);
      stroke-width: var(--stroke-width);
      fill: none;
      stroke-linecap: round;
      stroke-linejoin: round;
    }

    :host(.ion-color) path {
      --stroke: var(--ion-color-base) !important;
    }

    :host([tp-size='sm']) {
      /* --stroke-width: 1.5; */
      font-size: 16px;
    }

    :host([tp-size='md']) {
      /* --stroke-width: 3; */
      font-size: 32px;
    }

    :host([tp-size='lg']) {
      /* --stroke-width: 4; */
      font-size: 48px;
    }
  </style>
 <path d="M1 1l22 22M16.72 11.060c0.819 0.4 1.585 0.9 2.28 1.49M5 12.55c1.482-1.239 3.266-2.064 5.17-2.39M10.71 5.050c2.142-0.173 4.298 0.088 6.337 0.767s3.921 1.761 5.533 3.183M1.42 9c1.387-1.226 2.978-2.201 4.7-2.88M8.53 16.11c1.015-0.721 2.23-1.109 3.475-1.109s2.46 0.387 3.475 1.109M12 20h0.010"></path>
</svg>
